X:1
T:Tam Lin
C:Davey Arthur
S:San Francisco Scottish Fiddlers Newsletter 04/02
Z:Steve Wyrick  scots-l 2002-6-10
K:DMin
M:4/4
G, \
|: "Dm"A,2 DA, FA,DA, | "Bb"B,2 DB, FB,DB, | "C"C2 EC GCEC | "Bb"FEDC "C"A,DDC |
| "Dm"A,2 DA, FA,DA, | "Bb"B,2 DB, FB,DB, | "C"C2 EC GCEC | "Am"FEDC A,DD2 :|
|: "Dm"dAA2 FADA | "Dm"dAA2 FADA | "C"cGG2 EGG2 | "Am"cGG2 cdec |
| "Dm"dAA2 FADA | "F"dAA2 FACA, | "Bb"B,2 B,A, B,CDE | "C"FDEC A,DD2 :|
